X:1
T:Five Minutes More
T:Five Minutes More
T:arr. by Emma Nelson
T:lyrics by Sammy Cahn
T:composed by Jule Styne
C:Sammy Cahn
Z:Jule Styne
L:1/8
M:4/4
K:Ab
V:1 treble nm="Piano" snm="Pno."
V:1
"Ab" F2 E2 C2 A,2 |"G" G,2"Ab" A,2 C2"Ebpower" E2 |"Ab" F4 C2 F2- | F6 z2 |"Ab" F2 E2 C2 A,2 | %5
w: Dear, this eve- ning|seemed to go so|awf- 'ly fast.||We had so much|
"G" G,2"Ab" A,2 C2"Ebpower" E2 |"Ab" A4"Ab9" E2"Ebm7" _G2- |"Ab7""Ebm7" G6"Ab7" z2 | %8
w: fun and now you're|home at last.||
"Db" F2 A2 AAGF |"Ab" E2 A2"Fm" A2 EC |"Bbm7" D4"Eb7" E2"Ab" C2- | C4 z2"Ebdim" C_C | %12
w: I looked for- ward to a|kiss or two at the|gar- den gate.|* But you|
"Eb" B,2 C2"Ebdim" E2 C2 |"Ab" B,B, C2"Cm" E2 G2 |"Fm7" B4"Bb7" B,2"Eb7" E2- | E4 || A,2 C2 |: %17
w: gave me just one|peck and in- sis- ted|it was late.||Give me|
"Ab" E4 A, C2 E- | E4"Cpower" A2"C7" G2 |"Db" F4"Fpower" D"F7" C2"Bbm" B,- | B,2 z2"Bb7" B A2 G- | %21
w: five min- utes more,|* on- ly|five min- utes more.|* Let me stay,|
"Eb7" G4"Bbm7" z AFE- |"Eb" E4"Eb9" z FDC- |"Ab" C8- | C2 z2 A,2 C2 | E4 A, C2 E- | %26
w: * let me stay,|* in your arms.||* Here am|I beg- ging for|
 E4"Cpower" A2"C7" G2 |"Db" F4"Fpower" D"F7" C2"Bbm" B,- | B,2 z2"Bb7" B A2 G- | %29
w: * on- ly|five min- utes more,|* on- ly five|
"Eb7" G4"Bbm7" z AFE- |"Eb7" E4"Eb9" z F"Eb7"GA- |"Ab""Bbm7" A8- |"Ab""Abpower" A6 z2 | %33
w: * min- utes more|* of your charms.|||
"Db" c2 A2 B2 A2 |"Dbm" c2 A B3 A2 |"Ab" z2 c3 AFE- | E2 z2 z4 |"Db" F2 A2 A2 F2 | %38
w: All week long I|dreamed a- bout our|Sat- ur- day date.||Don't you know that|
"Ab" E2 F2"C7" G2"Fm" A2 |"Bb7" z2"Ctacet" B3 GFE- |"Eb7" E2 z2 A,2 C2 |"Ab" E4 A, C2 E- | %42
w: Sun- day morn- ing|you can sleep late?|* Give me|five min- utes more,|
 E4"Cpower" A2"C7" G2 |"Db" F4"Fpower" D"F7" C2"Bbm" B,- | B,2 z2"Bbm7" B A2 G- | %45
w: * on- ly|five min- utes more.|* Let me stay,|
"Eb7" G4"Bbm7" z AF(E |1"Eb7" E4)"Eb9" z F"Eb7"GA- |"Ab""Bbm7""Fm7""Gb9" A8 |"Eb7" z4 A,2 (C2 :|2 %49
w: * let me stay,|* in your arms.||Give me|
"Eb7" E4)"Bbm7" (3z2 c2 c2 |"Ab""Bbm7""Ab""Fb7" A8- |"Bbm7""Eb9""Ab" A6 z A- || (AE)FC E_C=C_C | %53
w: * in your|arms|* five|* * min- utes more to let me|
"Eb7" CEF"Ab" A3 z2 |] %54
w: stay in your arms|

